X: 11181
T: OF A' THE AIRT'S &c.
%R: hornpipe, strathspey
B: "Edinburgh Repository of Music" v.1 p.118 #1
F: http://digital.nls.uk/special-collections-of-printed-music/pageturner.cfm?id=87776133
Z: 2015 John Chambers <jc:trillian.mit.edu>
N: The only repeat symbol is at the end; it's not clear what is intended.
M: C
L: 1/16
K: C
G2 | c3c c3c c3Gc3a | g3e d3c A6 G2 | c3c c3c c3Gc3a | g2ab c'2e2 g6 a2 |
g2ab c'2e2 g2e2d2c2 | d3e (fe)(dc) A6 G2 | c3c c3c c2G2 c2a2 | ge3 d3e c6 |]
GF |\
E3G c3G A3G c3G | e3g (fedc) A6 GF | E3G c3G A3G c3G | e3f (ga)(bc') g6 ab |
{c}c'2b2a2g2 a2g2f2e2 | d3e (fe)(dc) A6 G2 | c3c c3c c2G2 c2a2 | ge3 d3e c6 :|

%%sep 2 1 500
%%sep 1 1 500

